src/assets/add-new-card.svg

<svg width="332" height="196" fill="none" xmlns="http://www.w3.org/2000/svg"><g clip-path="url(#clip0_188_534)"><rect width="332" height="196" rx="25" fill="#EDEDED"/><ellipse cx="33" cy="193.5" rx="175" ry="110.5" fill="#F6F6F6"/><ellipse cx="332" cy="-13.5" rx="175" ry="110.5" fill="#F6F6F6"/><path fill-rule="evenodd" clip-rule="evenodd" d="M207.5 107.75c6.213 0 11.25-5.037 11.25-11.25s-5.037-11.25-11.25-11.25-11.25 5.037-11.25 11.25 5.037 11.25 11.25 11.25zM206.375 92a1.125 1.125 0 012.25 0v3.375H212a1.123 1.123 0 011.125 1.125A1.125 1.125 0 01212 97.625h-3.375V101a1.123 1.123 0 01-1.125 1.125 1.123 1.123 0 01-1.125-1.125v-3.375H203a1.123 1.123 0 01-1.125-1.125A1.125 1.125 0 01203 95.375h3.375V92z" fill="#000"/><path d="M112.112 89.112h2.304L119.258 102h-2.232l-1.152-3.294h-5.202l-1.17 3.294h-2.232l4.842-12.888zm3.078 7.722L113.822 93l-.504-1.494h-.108L112.706 93l-1.368 3.834h3.852zm9.156 5.454c-.828 0-1.578-.21-2.25-.63a4.542 4.542 0 01-1.602-1.728c-.384-.744-.576-1.584-.576-2.52 0-.936.192-1.77.576-2.502a4.509 4.509 0 011.602-1.746 4.159 4.159 0 012.25-.63c.648 0 1.23.144 1.746.432.516.288.906.642 1.17 1.062h.09l-.09-1.296v-3.618h1.98V102h-1.89v-1.188h-.09c-.264.408-.654.756-1.17 1.044a3.52 3.52 0 01-1.746.432zm.288-1.818c.48 0 .924-.126 1.332-.378.42-.252.756-.612 1.008-1.08.252-.468.378-1.002.378-1.602 0-.6-.126-1.128-.378-1.584a2.742 2.742 0 00-1.008-1.08 2.487 2.487 0 00-1.332-.378c-.48 0-.93.126-1.35.378-.42.252-.756.612-1.008 1.08-.252.456-.378.984-.378 1.584 0 .6.126 1.134.378 1.602.252.468.588.828 1.008 1.08.42.252.87.378 1.35.378zm10.751 1.818c-.828 0-1.578-.21-2.25-.63a4.542 4.542 0 01-1.602-1.728c-.384-.744-.576-1.584-.576-2.52 0-.936.192-1.77.576-2.502a4.509 4.509 0 011.602-1.746 4.159 4.159 0 012.25-.63c.648 0 1.23.144 1.746.432.516.288.906.642 1.17 1.062h.09l-.09-1.296v-3.618h1.98V102h-1.89v-1.188h-.09c-.264.408-.654.756-1.17 1.044a3.52 3.52 0 01-1.746.432zm.288-1.818c.48 0 .924-.126 1.332-.378.42-.252.756-.612 1.008-1.08.252-.468.378-1.002.378-1.602 0-.6-.126-1.128-.378-1.584a2.742 2.742 0 00-1.008-1.08 2.487 2.487 0 00-1.332-.378c-.48 0-.93.126-1.35.378-.42.252-.756.612-1.008 1.08-.252.456-.378.984-.378 1.584 0 .6.126 1.134.378 1.602.252.468.588.828 1.008 1.08.42.252.87.378 1.35.378zm11.133-7.65h1.89v1.206h.09c.264-.432.654-.786 1.17-1.062a3.445 3.445 0 011.674-.432c1.116 0 1.962.33 2.538.99.588.648.882 1.536.882 2.664V102h-1.98v-5.544c0-.72-.18-1.248-.54-1.584-.348-.336-.834-.504-1.458-.504-.444 0-.84.126-1.188.378-.348.24-.618.564-.81.972a3.047 3.047 0 00-.288 1.314V102h-1.98v-9.18zm14.671 9.468c-.9 0-1.71-.21-2.43-.63a4.541 4.541 0 01-1.674-1.728c-.396-.744-.594-1.578-.594-2.502 0-.876.192-1.686.576-2.43a4.652 4.652 0 011.638-1.8c.696-.444 1.488-.666 2.376-.666.924 0 1.722.204 2.394.612.684.408 1.2.966 1.548 1.674.36.708.54 1.506.54 2.394a4.6 4.6 0 01-.054.63h-7.038c.072.852.372 1.512.9 1.98.54.456 1.164.684 1.872.684.564 0 1.05-.126 1.458-.378.42-.264.756-.618 1.008-1.062l1.674.792a4.932 4.932 0 01-1.692 1.782c-.696.432-1.53.648-2.502.648zm2.358-5.958a2.225 2.225 0 00-.306-.954c-.18-.324-.456-.594-.828-.81-.36-.216-.804-.324-1.332-.324-.636 0-1.176.192-1.62.576-.432.372-.732.876-.9 1.512h4.986zm2.617-3.51h2.142l1.854 6.57h.072l2.07-6.57h2.034l2.052 6.57h.072l1.854-6.57h2.106l-2.934 9.18h-2.088l-2.106-6.588h-.054L171.438 102h-2.052l-2.934-9.18z" fill="#000"/></g><defs><clipPath id="clip0_188_534"><rect width="332" height="196" rx="25" fill="#fff"/></clipPath></defs></svg>

<svg width="332" height="196" viewBox="0 0 332 196" fill="none" xmlns="http://www.w3.org/2000/svg">
<g clip-path="url(#clip0_188_534)">
<rect width="332" height="196" rx="25" fill="#EDEDED"/>
<ellipse cx="33" cy="193.5" rx="175" ry="110.5" fill="#F6F6F6"/>
<ellipse cx="332" cy="-13.5" rx="175" ry="110.5" fill="#F6F6F6"/>
<path fill-rule="evenodd" clip-rule="evenodd" d="M207.5 107.75C213.713 107.75 218.75 102.713 218.75 96.5C218.75 90.2866 213.713 85.25 207.5 85.25C201.287 85.25 196.25 90.2866 196.25 96.5C196.25 102.713 201.287 107.75 207.5 107.75ZM206.375 92C206.375 91.7016 206.494 91.4155 206.705 91.2045C206.915 90.9935 207.202 90.875 207.5 90.875C207.798 90.875 208.085 90.9935 208.295 91.2045C208.506 91.4155 208.625 91.7016 208.625 92V95.375H212C212.298 95.375 212.585 95.4935 212.795 95.7045C213.006 95.9155 213.125 96.2016 213.125 96.5C213.125 96.7984 213.006 97.0845 212.795 97.2955C212.585 97.5065 212.298 97.625 212 97.625H208.625V101C208.625 101.298 208.506 101.585 208.295 101.795C208.085 102.006 207.798 102.125 207.5 102.125C207.202 102.125 206.915 102.006 206.705 101.795C206.494 101.585 206.375 101.298 206.375 101V97.625H203C202.702 97.625 202.415 97.5065 202.205 97.2955C201.994 97.0845 201.875 96.7984 201.875 96.5C201.875 96.2016 201.994 95.9155 202.205 95.7045C202.415 95.4935 202.702 95.375 203 95.375H206.375V92Z" fill="black"/>
<path d="M112.112 89.112H114.416L119.258 102H117.026L115.874 98.706H110.672L109.502 102H107.27L112.112 89.112ZM115.19 96.834L113.822 93L113.318 91.506H113.21L112.706 93L111.338 96.834H115.19ZM124.346 102.288C123.518 102.288 122.768 102.078 122.096 101.658C121.424 101.238 120.89 100.662 120.494 99.93C120.11 99.186 119.918 98.346 119.918 97.41C119.918 96.474 120.11 95.64 120.494 94.908C120.89 94.164 121.424 93.582 122.096 93.162C122.768 92.742 123.518 92.532 124.346 92.532C124.994 92.532 125.576 92.676 126.092 92.964C126.608 93.252 126.998 93.606 127.262 94.026H127.352L127.262 92.73V89.112H129.242V102H127.352V100.812H127.262C126.998 101.22 126.608 101.568 126.092 101.856C125.576 102.144 124.994 102.288 124.346 102.288ZM124.634 100.47C125.114 100.47 125.558 100.344 125.966 100.092C126.386 99.84 126.722 99.48 126.974 99.012C127.226 98.544 127.352 98.01 127.352 97.41C127.352 96.81 127.226 96.282 126.974 95.826C126.722 95.358 126.386 94.998 125.966 94.746C125.558 94.494 125.114 94.368 124.634 94.368C124.154 94.368 123.704 94.494 123.284 94.746C122.864 94.998 122.528 95.358 122.276 95.826C122.024 96.282 121.898 96.81 121.898 97.41C121.898 98.01 122.024 98.544 122.276 99.012C122.528 99.48 122.864 99.84 123.284 100.092C123.704 100.344 124.154 100.47 124.634 100.47ZM135.385 102.288C134.557 102.288 133.807 102.078 133.135 101.658C132.463 101.238 131.929 100.662 131.533 99.93C131.149 99.186 130.957 98.346 130.957 97.41C130.957 96.474 131.149 95.64 131.533 94.908C131.929 94.164 132.463 93.582 133.135 93.162C133.807 92.742 134.557 92.532 135.385 92.532C136.033 92.532 136.615 92.676 137.131 92.964C137.647 93.252 138.037 93.606 138.301 94.026H138.391L138.301 92.73V89.112H140.281V102H138.391V100.812H138.301C138.037 101.22 137.647 101.568 137.131 101.856C136.615 102.144 136.033 102.288 135.385 102.288ZM135.673 100.47C136.153 100.47 136.597 100.344 137.005 100.092C137.425 99.84 137.761 99.48 138.013 99.012C138.265 98.544 138.391 98.01 138.391 97.41C138.391 96.81 138.265 96.282 138.013 95.826C137.761 95.358 137.425 94.998 137.005 94.746C136.597 94.494 136.153 94.368 135.673 94.368C135.193 94.368 134.743 94.494 134.323 94.746C133.903 94.998 133.567 95.358 133.315 95.826C133.063 96.282 132.937 96.81 132.937 97.41C132.937 98.01 133.063 98.544 133.315 99.012C133.567 99.48 133.903 99.84 134.323 100.092C134.743 100.344 135.193 100.47 135.673 100.47ZM146.806 92.82H148.696V94.026H148.786C149.05 93.594 149.44 93.24 149.956 92.964C150.484 92.676 151.042 92.532 151.63 92.532C152.746 92.532 153.592 92.862 154.168 93.522C154.756 94.17 155.05 95.058 155.05 96.186V102H153.07V96.456C153.07 95.736 152.89 95.208 152.53 94.872C152.182 94.536 151.696 94.368 151.072 94.368C150.628 94.368 150.232 94.494 149.884 94.746C149.536 94.986 149.266 95.31 149.074 95.718C148.882 96.126 148.786 96.564 148.786 97.032V102H146.806V92.82ZM161.477 102.288C160.577 102.288 159.767 102.078 159.047 101.658C158.339 101.238 157.781 100.662 157.373 99.93C156.977 99.186 156.779 98.352 156.779 97.428C156.779 96.552 156.971 95.742 157.355 94.998C157.751 94.242 158.297 93.642 158.993 93.198C159.689 92.754 160.481 92.532 161.369 92.532C162.293 92.532 163.091 92.736 163.763 93.144C164.447 93.552 164.963 94.11 165.311 94.818C165.671 95.526 165.851 96.324 165.851 97.212C165.851 97.38 165.833 97.59 165.797 97.842H158.759C158.831 98.694 159.131 99.354 159.659 99.822C160.199 100.278 160.823 100.506 161.531 100.506C162.095 100.506 162.581 100.38 162.989 100.128C163.409 99.864 163.745 99.51 163.997 99.066L165.671 99.858C165.239 100.614 164.675 101.208 163.979 101.64C163.283 102.072 162.449 102.288 161.477 102.288ZM163.835 96.33C163.811 96.006 163.709 95.688 163.529 95.376C163.349 95.052 163.073 94.782 162.701 94.566C162.341 94.35 161.897 94.242 161.369 94.242C160.733 94.242 160.193 94.434 159.749 94.818C159.317 95.19 159.017 95.694 158.849 96.33H163.835ZM166.452 92.82H168.594L170.448 99.39H170.52L172.59 92.82H174.624L176.676 99.39H176.748L178.602 92.82H180.708L177.774 102H175.686L173.58 95.412H173.526L171.438 102H169.386L166.452 92.82Z" fill="black"/>
</g>
<defs>
<clipPath id="clip0_188_534">
<rect width="332" height="196" rx="25" fill="white"/>
</clipPath>
</defs>
</svg>
